symbols/web/doorbell/materialsymbolsrounded/doorbell_wght100gradN25_48px.svg

<svg xmlns="http://www.w3.org/2000/svg" height="48" width="48"><path d="M24 34.15q.6 0 1.1-.425.5-.425.65-1.025H22.3q.1.55.575 1 .475.45 1.125.45Zm-6.5-2.45h13q.25 0 .45-.175t.2-.475q0-.25-.2-.425t-.45-.175h-1.35v-4.6q0-2.05-1.025-3.775T25.15 19.9v-.85q0-.5-.35-.8-.35-.3-.8-.3-.5 0-.8.3-.3.3-.3.8v.85q-2 .4-3 2.15t-1 3.8v4.6h-1.4q-.25 0-.425.175t-.175.425q0 .3.175.475t.425.175Zm-5.8 7.7q-.45 0-.775-.325T10.6 38.3V19.85q0-.25.075-.475.075-.225.375-.425l12.3-9.25.35-.175q.15-.075.3-.075.2 0 .325.075t.325.175l12.3 9.25q.3.2.375.425.075.225.075.475V38.3q0 .45-.325.775t-.775.325Zm0-1.1h24.6V19.8L24 10.65 11.7 19.8ZM24 24.4Z"/></svg>

<svg xmlns="http://www.w3.org/2000/svg" height="48" width="48"><path d="M24 34.15Q24.6 34.15 25.1 33.725Q25.6 33.3 25.75 32.7H22.3Q22.4 33.25 22.875 33.7Q23.35 34.15 24 34.15ZM17.5 31.7H30.5Q30.75 31.7 30.95 31.525Q31.15 31.35 31.15 31.05Q31.15 30.8 30.95 30.625Q30.75 30.45 30.5 30.45H29.15V25.85Q29.15 23.8 28.125 22.075Q27.1 20.35 25.15 19.9V19.05Q25.15 18.55 24.8 18.25Q24.45 17.95 24 17.95Q23.5 17.95 23.2 18.25Q22.9 18.55 22.9 19.05V19.9Q20.9 20.3 19.9 22.05Q18.9 23.8 18.9 25.85V30.45H17.5Q17.25 30.45 17.075 30.625Q16.9 30.8 16.9 31.05Q16.9 31.35 17.075 31.525Q17.25 31.7 17.5 31.7ZM11.7 39.4Q11.25 39.4 10.925 39.075Q10.6 38.75 10.6 38.3V19.85Q10.6 19.6 10.675 19.375Q10.75 19.15 11.05 18.95L23.35 9.7Q23.55 9.6 23.7 9.525Q23.85 9.45 24 9.45Q24.2 9.45 24.325 9.525Q24.45 9.6 24.65 9.7L36.95 18.95Q37.25 19.15 37.325 19.375Q37.4 19.6 37.4 19.85V38.3Q37.4 38.75 37.075 39.075Q36.75 39.4 36.3 39.4ZM11.7 38.3H36.3V19.8L24 10.65L11.7 19.8ZM24 24.4Z"/></svg>
